!!!OTL: AUF BRUEDER LASST UNS LUSTIG LEBEN
!!!ARE: Europa, Mitteleuropa, Deutschland
!!!SCT: F0497A
!!!YEM: Copyright 1995, estate of Helmut Schaffrath.
**kern
*ICvox
*Ivox
*M3/4
*k[b-e-a-]
*E-:
{4b-
=1
2b-
4ee-
=2
2b-
4g
=3
4a-
4f
4b-
=4
4g
4e-}
{4B-
=5
8e-
8e-
8e-
8e-
8e-
8e-
=6
2e-}
{4b-
=7
2b-
4ee-
=8
2b-
4g
=9
4a-
4f
4b-
=10
4g
4e-}
{4f
=11
8g
8g
8g
8g
8g
8g
=12
2g}
{4b-
=13
4ee-
4dd
4cc
=14
4b-
4a-
4g
=15
2a-
4b-
=16
2cc}
{4dd
=17
4ee-
4dd
4cc
=18
2b-
4ee-
=19
4ff
4ee-
4dd
=20
2ee-}
{4B-
=21
8e-
8e-
8e-
8e-
8e-
8e-
=22
2e-}
{4f
=23
8g
8g
8g
8g
8g
8g
=24
2g}
{4b-
=25
8ee-
8ee-
8ee-
8ee-
8ee-
8ee-
=26
2ee-}
==
!!!AGN: Studenten - Lied
!!!ONB: ESAC (Essen Associative Code) Database: FINK
!!!AMT: simple triple
!!!AIN: vox
!!!EED: Helmut Schaffrath
!!!EEV: 1.0
*-
